packages/core/src/svg/ui/download-cloud.svg

<svg role="img" xmlns="http://www.w3.org/2000/svg" viewBox="0 0 24 24">
  <g fill="none" fill-rule="evenodd">
    <rect width="24" height="24"/>
    <path fill="currentColor" d="M13,9 L13,19 L15,17 L16.5,18.5 L12,23 L7.5,18.5 L9,17 L11,19 L11,9 L13,9 Z M11.5,1 C14.0570069,1 16.3672564,2.55157482 17.2358321,4.93092178 L17.2835,5.0665 L17.4145183,5.08731097 C20.0449239,5.53520702 21.9316381,7.61876864 21.9981819,10.350367 L22,10.5 C22,13.6411668 19.7996323,15.9265021 16.7006468,15.998261 L15.5,16 L15.5,14 L16.55,14 C18.6163623,14 20,12.5942857 20,10.5 C20,8.538055 18.6018237,7.11877635 16.6000787,7.00507103 L16.4714957,6.99959367 L15.6755756,6.97689732 L15.5194193,6.19611614 C15.1395428,4.29673328 13.433695,3 11.5,3 C9.26285888,3 7.62213728,4.5585359 7.5065992,6.75063225 L7.50156899,6.88030287 L7.48772078,7.99175409 L6.33061979,8.0012438 C4.84064582,8.04438683 3.6,9.45296792 3.6,11.1 C3.6,12.6643787 4.83868693,13.9394465 6.38876321,13.9979059 L6.5,14 L8.5,14 L8.5,16 L6.5,16 C3.79380473,16 1.6,13.8061953 1.6,11.1 C1.6,8.68983052 3.25231852,6.56452435 5.49502278,6.09571076 L5.5645,6.082 L5.58684851,5.93675031 C6.05502185,3.09688845 8.36434526,1.06966277 11.3452237,1.00175907 L11.5,1 Z"/>
  </g>
</svg>

<svg viewBox="0 0 24 24" role="img" xmlns="http://www.w3.org/2000/svg"><g fill="none" fill-rule="evenodd"><path d="M0 0h24v24H0z"/><path d="M13 9v10.876l2.182-2.18 1.06 1.061L12 23l-4.243-4.243 1.061-1.06L11 19.878V9h2zm-1.5-8c2.557 0 4.867 1.552 5.736 3.93l.047.136.132.021c2.63.448 4.517 2.532 4.583 5.263l.002.15c0 3.141-2.2 5.427-5.3 5.498L15.5 16v-2h1.05c2.066 0 3.45-1.406 3.45-3.5 0-1.962-1.398-3.381-3.4-3.495L16.471 7l-.795-.023-.157-.78C15.14 4.296 13.434 3 11.5 3 9.263 3 7.622 4.559 7.507 6.75l-.005.13-.014 1.112-1.157.01C4.84 8.043 3.6 9.452 3.6 11.1a2.9 2.9 0 002.789 2.898L6.5 14h2v2h-2a4.9 4.9 0 01-4.9-4.9c0-2.41 1.652-4.535 3.895-5.004l.07-.014.022-.145c.468-2.84 2.777-4.867 5.758-4.935L11.5 1z" fill="currentColor"/></g></svg>
